X: 1
T: Knapp-Brittas brudpolska
Z: John Watson
R: polska
M: 3/4
L: 1/16
K:Dmaj
S: http://tradtunedb.org.uk:8080/musicrest/genre/scandi/tune/knapp-brittas+brudpolska-polska
|: A2 | (3d4d4f4 d3A | (3d4d4f4 d3B | (3:2:4A2c2e4f4 g3e | (3:2:4f2d2e4c4 A3A |
(3d4d4f4 d3c | (3B4e4g4 b3b | a4 gage f3d | ec3 d6 :|
|: e2 | (3f4a4g4 f3a | (3g4b4a4 g3b | a4 gage f3d | (3:2:4e2c2d4B4 A3A |
(3f4a4g4 f3a | (3g4b4a4 g3f | (3:2:4e2d2c4B4 A3g | ec3 d6 :| 
